app/_assets/images/icons/icn-cloud-default.svg

<svg height="13" preserveAspectRatio="xMidYMid" viewBox="0 0 16 13" width="16" xmlns="http://www.w3.org/2000/svg"><path d="m16 9c0 2.209-1.791 4-4 4h-8v-.05c-2.247-.252-4-2.136-4-4.45 0-2.017 1.335-3.703 3.163-4.275.578-2.42 2.74-4.225 5.337-4.225 3.038 0 5.5 2.462 5.5 5.5 0 .018-.005.034-.005.052 1.193.692 2.005 1.969 2.005 3.448zm-4-2c-.127 0-.25.015-.37.037.229-.465.37-.983.37-1.537 0-1.933-1.567-3.5-3.5-3.5s-3.5 1.567-3.5 3.5c0 .194.027.382.057.567-.18-.041-.365-.067-.557-.067-1.381 0-2.5 1.119-2.5 2.5 0 1.209.859 2.218 2 2.45v.05h8c1.105 0 2-.895 2-2s-.895-2-2-2z" fill="#ced4d9" fill-rule="evenodd"/></svg>

<svg xmlns="http://www.w3.org/2000/svg" xmlns:xlink="http://www.w3.org/1999/xlink" preserveAspectRatio="xMidYMid" width="16" height="13" viewBox="0 0 16 13">
  <defs>
    <style>

      .cls-2 {
        fill: #ced4d9;
      }
    </style>
  </defs>
  <path d="M16.000,9.000 C16.000,11.209 14.209,13.000 12.000,13.000 C12.000,13.000 4.000,13.000 4.000,13.000 C4.000,13.000 4.000,12.950 4.000,12.950 C1.753,12.698 -0.000,10.814 -0.000,8.500 C-0.000,6.483 1.335,4.797 3.163,4.225 C3.741,1.805 5.903,0.000 8.500,0.000 C11.538,0.000 14.000,2.462 14.000,5.500 C14.000,5.518 13.995,5.534 13.995,5.552 C15.188,6.244 16.000,7.521 16.000,9.000 ZM12.000,7.000 C11.873,7.000 11.750,7.015 11.630,7.037 C11.859,6.572 12.000,6.054 12.000,5.500 C12.000,3.567 10.433,2.000 8.500,2.000 C6.567,2.000 5.000,3.567 5.000,5.500 C5.000,5.694 5.027,5.882 5.057,6.067 C4.877,6.026 4.692,6.000 4.500,6.000 C3.119,6.000 2.000,7.119 2.000,8.500 C2.000,9.709 2.859,10.718 4.000,10.950 C4.000,10.950 4.000,11.000 4.000,11.000 C4.000,11.000 12.000,11.000 12.000,11.000 C13.105,11.000 14.000,10.105 14.000,9.000 C14.000,7.895 13.105,7.000 12.000,7.000 Z" id="path-1" class="cls-2" fill-rule="evenodd"/>
</svg>
